src/images/badges/merged-pr-50.svg

<svg width="80" height="20" viewBox="0 0 80 20" fill="none" xmlns="http://www.w3.org/2000/svg">
<path d="M79 10C79 5.02944 74.9706 1 70 1L10 1C5.02944 1 1 5.02944 1 10C1 14.9706 5.02944 19 10 19H70C74.9706 19 79 14.9706 79 10Z" fill="#F498AD"/>
<path d="M47.4708 4.83251C47.1835 4.72802 46.7394 4.64966 46.2692 4.64966C44.8325 4.64966 44.0489 5.5378 44.0489 7.36634V13.7401C44.0489 15.1245 43.5787 15.6992 42.6383 15.6992C42.3771 15.6992 42.142 15.647 41.8285 15.5686L41.7824 15.5568C41.6758 15.5294 41.5236 15.4902 41.4106 15.4902C41.1755 15.4902 41.0187 15.6209 41.0187 15.856C41.0187 16.0911 41.1755 16.2217 41.4106 16.3C41.6979 16.4045 42.142 16.4829 42.6122 16.4829C44.0489 16.4829 44.8325 15.6209 44.8325 13.7923V7.39246C44.8325 6.008 45.3027 5.43332 46.2431 5.43332C46.5043 5.43332 46.7394 5.48556 47.0529 5.56392L47.0984 5.57553C47.205 5.603 47.3575 5.64229 47.4708 5.64229C47.7059 5.64229 47.8627 5.51168 47.8627 5.27658C47.8627 5.04149 47.7059 4.91088 47.4708 4.83251Z" fill="black"/>
<path d="M4.99664 6.13865V10.8406C4.99664 12.6691 5.85867 13.7924 7.60883 13.8185C9.38512 13.8185 10.2471 12.6952 10.2471 10.8406V6.13865C10.2471 5.82519 10.0904 5.66846 9.8292 5.66846C9.56798 5.66846 9.41124 5.85131 9.41124 6.13865V10.8406C9.41124 12.4079 8.73207 13.0348 7.60883 13.0348C6.51171 13.0348 5.83254 12.4079 5.83254 10.8406V6.13865C5.83254 5.82519 5.64969 5.66846 5.41459 5.66846C5.15337 5.66846 4.99664 5.85131 4.99664 6.13865Z" fill="black"/>
<path fill-rule="evenodd" clip-rule="evenodd" d="M11.9451 13.0609C11.9451 13.2437 12.0496 13.4266 12.2324 13.4266C12.3474 13.4266 12.4826 13.3659 12.6737 13.28L12.7549 13.2437L14.3744 12.3556L16.0462 13.2176C16.2813 13.3482 16.438 13.4266 16.5686 13.4266C16.7515 13.4266 16.856 13.2437 16.856 13.0609C16.856 12.9911 16.8444 12.9213 16.8288 12.8282C16.8211 12.782 16.8124 12.7294 16.8037 12.669L16.4903 10.8144L17.8225 9.50828C18.0837 9.27318 18.1882 9.11645 18.1882 8.98584C18.1882 8.74582 17.8574 8.68224 17.6011 8.63296L17.5679 8.62656L17.5352 8.62013L15.6805 8.35891L14.8707 6.68711C14.6879 6.3214 14.5834 6.16467 14.4005 6.16467C14.2177 6.16467 14.1132 6.3214 13.9303 6.68711L13.1206 8.35891L11.2659 8.62013C11.2447 8.62437 11.2226 8.62861 11.2 8.63296C10.9437 8.68224 10.6129 8.74582 10.6129 8.98584C10.6129 9.11645 10.7435 9.27318 10.9786 9.50828L12.3108 10.8144L11.9973 12.669C11.9886 12.73 11.9799 12.7822 11.9722 12.8287C11.9567 12.9215 11.9451 12.9913 11.9451 13.0609ZM17.1695 9.24706L15.7327 10.5793L16.1246 12.4601L14.4267 11.5458L12.7287 12.4601L13.1206 10.5793L11.6839 9.24706L13.6169 9.01196L14.4267 7.26179L15.2364 9.01196L17.1695 9.24706Z" fill="black"/>
<path d="M18.7629 13.5573C18.7629 13.3744 18.9196 13.1916 19.1286 13.1916C19.1678 13.1916 19.2266 13.1981 19.2854 13.2047C19.3441 13.2112 19.4029 13.2177 19.442 13.2177C19.8861 13.2177 20.3824 12.643 20.6698 12.2512C20.0951 11.6242 19.442 10.8145 19.442 9.95244C19.442 8.93368 20.2257 8.20227 21.2967 8.20227C22.3677 8.20227 23.1514 8.93368 23.1514 9.95244C23.1514 10.8406 22.5244 11.6242 21.9236 12.2512C22.211 12.6691 22.7334 13.2177 23.1514 13.2177C23.2073 13.2177 23.2708 13.2102 23.3298 13.2032C23.3808 13.1972 23.4285 13.1916 23.4648 13.1916C23.6738 13.1916 23.8305 13.3744 23.8305 13.5573C23.8305 13.8707 23.5432 13.9752 23.2036 13.9752C22.2893 13.9752 21.7408 13.4005 21.2967 12.7997C20.8526 13.4005 20.3041 13.9752 19.3898 13.9752C19.0502 13.9752 18.7629 13.8707 18.7629 13.5573Z" fill="black"/>
<path fill-rule="evenodd" clip-rule="evenodd" d="M25.6591 13.0609C25.6591 13.2437 25.7635 13.4266 25.9464 13.4266C26.0509 13.4266 26.2337 13.3482 26.4166 13.2176L28.0884 12.3556L29.7602 13.2176C29.9953 13.3482 30.152 13.4266 30.2826 13.4266C30.4655 13.4266 30.57 13.2437 30.57 13.0609C30.57 12.9911 30.5584 12.9213 30.5428 12.8282C30.5351 12.7818 30.5264 12.7297 30.5177 12.669L30.2043 10.8144L31.5365 9.50828C31.7977 9.27318 31.9022 9.11645 31.9022 8.98584C31.9022 8.73734 31.5713 8.67796 31.2916 8.62779L31.2491 8.62013L29.3945 8.35891L28.5847 6.68711C28.4019 6.3214 28.2974 6.16467 28.1145 6.16467C27.9317 6.16467 27.8272 6.3214 27.6443 6.68711L26.8345 8.35891L24.9799 8.62013C24.9587 8.62437 24.9366 8.62862 24.9139 8.63297C24.6576 8.68224 24.3268 8.74584 24.3268 8.98584C24.3268 9.11645 24.4313 9.27318 24.6925 9.50828L26.0248 10.8144L25.7113 12.669C25.7026 12.73 25.6939 12.7822 25.6862 12.8287C25.6707 12.9216 25.6591 12.9912 25.6591 13.0609ZM30.8834 9.24706L29.4467 10.5793L29.8386 12.4601L28.1406 11.5458L26.4427 12.4601L26.8345 10.5793L25.3978 9.24706L27.3309 9.01196L28.1406 7.26179L28.9504 9.01196L30.8834 9.24706Z" fill="black"/>
<path d="M32.3985 10.8406V6.13865C32.3985 5.85131 32.5553 5.66846 32.8165 5.66846C33.0516 5.66846 33.2344 5.82519 33.2344 6.13865V10.8406C33.2344 12.4079 33.9136 13.0348 35.0107 13.0348C36.134 13.0348 36.8131 12.4079 36.8131 10.8406V6.13865C36.8131 5.85131 36.9699 5.66846 37.2311 5.66846C37.4923 5.66846 37.649 5.82519 37.649 6.13865V10.8406C37.649 12.6952 36.787 13.8185 35.0107 13.8185C33.2344 13.7924 32.3985 12.6691 32.3985 10.8406Z" fill="black"/>
<path d="M48.6986 10.501C48.6986 10.2397 48.8814 10.1091 49.1165 10.1091H54.6544C54.8895 10.1091 55.0723 10.2397 55.0723 10.501C55.0723 10.7622 54.8633 10.8928 54.6544 10.8928H49.1165C48.8814 10.8667 48.6986 10.7361 48.6986 10.501Z" fill="black"/>
<path d="M73.8278 7.34023C73.8278 7.47084 73.9323 7.54921 74.0629 7.54921C74.0891 7.54921 74.1674 7.52308 74.2719 7.47084C74.7944 7.15738 75.2645 6.66106 75.2645 6.06026C75.2645 5.45945 74.7421 5.01538 73.9585 5.01538C73.4099 5.01538 72.9136 5.22436 72.9136 5.53782C72.9136 5.72067 73.0442 5.82516 73.2532 5.82516C73.3198 5.82516 73.4005 5.79688 73.4933 5.76434C73.6191 5.72028 73.767 5.66843 73.9323 5.66843C74.3503 5.66843 74.5593 5.8774 74.5593 6.16474C74.5593 6.53045 74.298 6.79167 73.9846 7.05289C73.8801 7.15738 73.8278 7.23574 73.8278 7.34023Z" fill="black"/>
<path fill-rule="evenodd" clip-rule="evenodd" d="M65.495 10.4226C65.495 11.363 65.8868 11.9899 66.5137 11.9899C67.1406 11.9899 67.5325 11.3891 67.5325 10.4226C67.5325 9.48225 67.1406 8.85532 66.5137 8.85532C65.8868 8.85532 65.495 9.45612 65.495 10.4226ZM66.5137 10.8667C66.7734 10.8667 66.9839 10.6678 66.9839 10.4226C66.9839 10.1773 66.7734 9.97852 66.5137 9.97852C66.2541 9.97852 66.0435 10.1773 66.0435 10.4226C66.0435 10.6678 66.2541 10.8667 66.5137 10.8667Z" fill="black"/>
<path fill-rule="evenodd" clip-rule="evenodd" d="M68.5774 6.32153H60.6102C58.2853 6.34766 56.5352 8.09782 56.5352 10.4488C56.5352 12.6953 58.1547 14.4193 60.349 14.5499V14.5761H68.3945C70.7455 14.5761 72.5218 12.7998 72.5218 10.4488C72.5479 8.12394 70.85 6.3999 68.5774 6.32153ZM61.8118 9.95244C62.0469 9.82183 62.3603 9.71735 62.7522 9.71735C63.6664 9.71735 64.2934 10.3181 64.3456 11.0757C64.3456 11.9377 63.6664 12.5385 62.6738 12.5385C61.9424 12.5385 61.3677 12.225 61.1065 11.9377C61.0281 11.8593 60.9498 11.7549 60.9498 11.6242C60.9498 11.4414 61.1065 11.3108 61.2632 11.3108C61.3938 11.3108 61.4983 11.3891 61.5767 11.4936C61.8118 11.781 62.2036 11.9377 62.6477 11.9377C63.2485 11.9377 63.6664 11.5981 63.6664 11.0757C63.6664 10.5271 63.1963 10.2398 62.7522 10.2398C62.3603 10.2398 62.0208 10.3965 61.8118 10.5271C61.6552 10.6316 61.5767 10.6839 61.4461 10.6839C61.2894 10.6839 61.1326 10.5794 61.1326 10.3965C61.1326 10.3857 61.1371 10.3704 61.1423 10.3525C61.1497 10.3271 61.1587 10.2965 61.1587 10.2659L61.42 8.5941C61.4461 8.41125 61.5506 8.30676 61.7334 8.30676H63.8232C64.0322 8.30676 64.1628 8.43737 64.1628 8.62023C64.1628 8.80308 64.0322 8.93369 63.8232 8.93369C63.7258 8.93369 63.4716 8.92921 63.1737 8.92396C62.7524 8.91653 62.2439 8.90757 61.9685 8.90757L61.8118 9.95244ZM64.8419 10.4226C64.8419 9.11654 65.495 8.25452 66.5137 8.25452C67.5064 8.25452 68.1594 9.09042 68.1855 10.4226C68.1855 11.7549 67.5325 12.6169 66.5137 12.6169C65.495 12.6169 64.8419 11.7549 64.8419 10.4226Z" fill="black"/>
</svg>

<svg xmlns="http://www.w3.org/2000/svg" width="80" height="20" fill="none"><path fill="#F498AD" d="M79 10a9 9 0 0 0-9-9H10a9 9 0 0 0 0 18h60a9 9 0 0 0 9-9Z"/><path fill="#000" d="M47.47 4.833c-.286-.105-.73-.183-1.2-.183-1.438 0-2.221.888-2.221 2.716v6.374c0 1.384-.47 1.96-1.41 1.96-.262 0-.497-.053-.81-.131l-.047-.012c-.106-.028-.258-.067-.371-.067-.236 0-.392.13-.392.366 0 .235.157.366.392.444.287.104.731.183 1.201.183 1.437 0 2.22-.862 2.22-2.69v-6.4c0-1.385.47-1.96 1.411-1.96.261 0 .496.053.81.13l.045.013c.107.027.26.066.373.066.235 0 .392-.13.392-.365 0-.236-.157-.366-.392-.444ZM4.997 6.139v4.702c0 1.828.862 2.951 2.612 2.978 1.776 0 2.638-1.124 2.638-2.978V6.139c0-.314-.157-.47-.418-.47s-.418.182-.418.47v4.702c0 1.567-.679 2.194-1.802 2.194-1.097 0-1.776-.627-1.776-2.194V6.139c0-.314-.183-.47-.418-.47-.262 0-.418.182-.418.47Z"/><path fill="#000" fill-rule="evenodd" d="M11.945 13.06c0 .184.105.367.287.367.115 0 .25-.061.442-.147l.08-.036 1.62-.888 1.672.862c.235.13.392.209.523.209.183 0 .287-.183.287-.366 0-.07-.012-.14-.027-.233a7.045 7.045 0 0 1-.025-.159l-.314-1.855 1.333-1.306c.26-.235.365-.392.365-.522 0-.24-.33-.304-.587-.353l-.033-.006-.033-.007-1.854-.261-.81-1.672c-.183-.366-.288-.522-.47-.522-.183 0-.288.156-.47.522l-.81 1.672-1.855.261-.066.013c-.256.05-.587.113-.587.353 0 .13.13.287.366.522l1.332 1.306-.314 1.855c-.008.061-.017.113-.025.16a1.427 1.427 0 0 0-.027.232Zm5.224-3.813-1.436 1.332.392 1.881-1.698-.914-1.698.914.392-1.88-1.437-1.333 1.933-.235.81-1.75.81 1.75 1.932.235Z" clip-rule="evenodd"/><path fill="#000" d="M18.763 13.557c0-.183.157-.365.366-.365.039 0 .098.006.156.013.06.006.118.013.157.013.444 0 .94-.575 1.228-.967-.575-.627-1.228-1.436-1.228-2.299 0-1.018.784-1.75 1.855-1.75 1.07 0 1.854.732 1.854 1.75 0 .889-.627 1.672-1.227 2.3.287.417.81.966 1.227.966.056 0 .12-.008.179-.015.05-.006.099-.011.135-.011.209 0 .366.182.366.365 0 .314-.288.418-.627.418-.915 0-1.463-.575-1.907-1.175-.444.6-.993 1.175-1.907 1.175-.34 0-.627-.104-.627-.418Z"/><path fill="#000" fill-rule="evenodd" d="M25.66 13.06c0 .184.104.367.286.367.105 0 .288-.079.47-.21l1.672-.861 1.672.862c.235.13.392.209.523.209.182 0 .287-.183.287-.366 0-.07-.012-.14-.027-.233-.008-.046-.017-.098-.025-.159l-.314-1.855 1.332-1.306c.262-.235.366-.392.366-.522 0-.249-.33-.308-.61-.358l-.043-.008-1.854-.261-.81-1.672c-.183-.366-.288-.522-.47-.522-.183 0-.288.156-.47.522l-.81 1.672-1.855.261a8.441 8.441 0 0 1-.066.013c-.256.05-.587.113-.587.353 0 .13.104.287.365.522l1.333 1.306-.314 1.855c-.008.061-.017.113-.025.16a1.427 1.427 0 0 0-.027.232Zm5.223-3.813-1.436 1.332.392 1.881-1.698-.914-1.698.914.391-1.88-1.436-1.333 1.933-.235.81-1.75.81 1.75 1.932.235Z" clip-rule="evenodd"/><path fill="#000" d="M32.398 10.84V6.14c0-.288.157-.47.418-.47.236 0 .418.156.418.47v4.702c0 1.567.68 2.194 1.777 2.194 1.123 0 1.802-.627 1.802-2.194V6.139c0-.288.157-.47.418-.47s.418.156.418.47v4.702c0 1.854-.862 2.978-2.638 2.978-1.777-.027-2.613-1.15-2.613-2.978ZM48.699 10.501c0-.261.182-.392.418-.392h5.537c.235 0 .418.13.418.392 0 .261-.209.392-.418.392h-5.538c-.235-.026-.417-.157-.417-.392ZM73.828 7.34c0 .13.104.21.235.21a.707.707 0 0 0 .209-.08c.522-.313.992-.809.992-1.41 0-.6-.522-1.045-1.305-1.045-.55 0-1.045.21-1.045.523 0 .183.13.287.34.287a.81.81 0 0 0 .24-.06c.125-.045.273-.097.438-.097.418 0 .627.21.627.497 0 .365-.261.627-.574.888-.105.104-.157.183-.157.287Z"/><path fill="#000" fill-rule="evenodd" d="M65.495 10.423c0 .94.392 1.567 1.019 1.567.627 0 1.019-.6 1.019-1.567 0-.94-.392-1.568-1.02-1.568-.626 0-1.018.601-1.018 1.568Zm1.019.444c.26 0 .47-.2.47-.444a.458.458 0 0 0-.47-.444c-.26 0-.47.198-.47.444 0 .245.21.444.47.444Z" clip-rule="evenodd"/><path fill="#000" fill-rule="evenodd" d="M68.577 6.322H60.61c-2.325.026-4.075 1.776-4.075 4.127 0 2.246 1.62 3.97 3.814 4.1v.027h8.045c2.352 0 4.128-1.776 4.128-4.127.026-2.325-1.672-4.05-3.945-4.127Zm-6.765 3.63c.235-.13.548-.235.94-.235.914 0 1.541.601 1.594 1.359 0 .862-.68 1.463-1.672 1.463-.732 0-1.306-.314-1.568-.601-.078-.079-.156-.183-.156-.314 0-.183.156-.313.313-.313.13 0 .235.078.314.183.235.287.627.444 1.07.444.602 0 1.02-.34 1.02-.862 0-.549-.47-.836-.915-.836-.392 0-.731.156-.94.287-.157.105-.235.157-.366.157-.157 0-.313-.105-.313-.287 0-.011.004-.027.01-.045.007-.025.016-.056.016-.086l.261-1.672c.026-.183.13-.287.313-.287h2.09c.21 0 .34.13.34.313s-.13.314-.34.314c-.097 0-.351-.005-.65-.01-.42-.007-.93-.016-1.205-.016l-.156 1.044Zm3.03.47c0-1.305.653-2.167 1.672-2.167.992 0 1.645.835 1.672 2.168 0 1.332-.654 2.194-1.672 2.194-1.019 0-1.672-.862-1.672-2.194Z" clip-rule="evenodd"/></svg>
